X:1
T:Title
L:1/8
Q:1/4=140
M:6/8
K:F
V:1 treble nm="Grand Piano"
V:1
 B2 B B2 B | B2 B B2 B | B3 A3 | G6 | A2 A A2 A | A2 A A2 A | A2 A G2 G | F6 | G2 G G2 G | %9
w: ?????~??? * * *|||||||||
 G3 G2 G | A3 B3 | c6 | F3 d2 d | A3 c3 | B6- | B6 | B2 B B2 B | B2 B B2 B | B3 A3 | G6 | %20
w: |||||||||||
 A2 A A2 A | A2 A A2 A | A2 A G2 G | F6 | G2 G G2 G | G3 G2 G | A3 B3 | c6 | F3 d2 d | A3 c3 | %30
w: ||||||||||
 B6- | B6 | B3 B2 B | B3 B3 | B3 A3 | G6 | A3 A2 A | A3 A3 | A3 G3 | F6 | G3 G2 G | G3 G3 | A3 B3 | %43
w: |||||||||||||
 c6 | F3 d2 d | A3 c3 | B6- | B6 | B2 B B2 B | B2 B B2 B | B3 A3 | G6 | A2 A A2 A | A2 A A2 A | %54
w: |||||||||||
 A2 A G2 G | F6 | G2 G G2 G | G3 G2 G | A3 B3 | c6 | F3 d2 d | A3 c3 | B6- |[M:7/4] B6 z2 z2 z4 |] %64
w: ||||||||||

